img/flow-type/404.svg

<svg fill="none" height="175" viewBox="0 0 175 175" width="175" xmlns="http://www.w3.org/2000/svg"><path d="m88 58.5c-16.6406 0-30 13.4766-30 30 0 16.641 13.3594 30 30 30 16.523 0 30-13.359 30-30 0-16.5234-13.477-30-30-30zm-2.8125 17.8125c0-1.5234 1.1719-2.8125 2.8125-2.8125 1.5234 0 2.8125 1.2891 2.8125 2.8125v15c0 1.6406-1.2891 2.8125-2.8125 2.8125-1.6406 0-2.8125-1.1719-2.8125-2.8125zm2.8125 29.0625c-2.1094 0-3.75-1.641-3.75-3.633s1.6406-3.6326 3.75-3.6326c1.9922 0 3.6328 1.6406 3.6328 3.6326s-1.6406 3.633-3.6328 3.633z" fill="#d12e6a"/><g fill="#000"><path d="m64.2505 101.508c1.9921 0 3.75-1.7581 3.75-3.7503 0-2.1094-1.7579-3.75-3.75-3.75h-3.75v-16.7578c0-1.9922-1.7579-3.75-3.75-3.75-2.1094 0-3.75 1.7578-3.75 3.75v16.7578h-20.3907l12.4219-26.3672c.9375-1.875.1172-4.1016-1.7578-4.9219-1.875-.9375-4.1016-.1172-4.9219 1.7578l-15 31.6407c-.5859 1.1718-.4687 2.5781.1172 3.6328.7031 1.0551 1.9922 1.7581 3.2813 1.7581h26.25v9.492c0 2.109 1.6406 3.75 3.75 3.75 1.9921 0 3.75-1.641 3.75-3.75v-9.492z"/><path d="m149.25 101.508c1.993 0 3.75-1.7581 3.75-3.7503 0-2.1094-1.757-3.75-3.75-3.75h-3.75v-16.7578c0-1.9922-1.757-3.75-3.75-3.75-2.109 0-3.75 1.7578-3.75 3.75v16.7578h-20.39l12.422-26.3672c.937-1.875.117-4.1016-1.758-4.9219-1.875-.9375-4.102-.1172-4.922 1.7578l-15 31.6407c-.586 1.1718-.469 2.5781.117 3.6328.703 1.0551 1.992 1.7581 3.281 1.7581h26.25v9.492c0 2.109 1.641 3.75 3.75 3.75 1.993 0 3.75-1.641 3.75-3.75v-9.492z"/></g></svg>

<svg width="175" height="175" viewBox="0 0 175 175" fill="none" xmlns="http://www.w3.org/2000/svg">
<path d="M88 58.5C71.3594 58.5 58 71.9766 58 88.5C58 105.141 71.3594 118.5 88 118.5C104.523 118.5 118 105.141 118 88.5C118 71.9766 104.523 58.5 88 58.5ZM85.1875 76.3125C85.1875 74.7891 86.3594 73.5 88 73.5C89.5234 73.5 90.8125 74.7891 90.8125 76.3125V91.3125C90.8125 92.9531 89.5234 94.125 88 94.125C86.3594 94.125 85.1875 92.9531 85.1875 91.3125V76.3125ZM88 105.375C85.8906 105.375 84.25 103.734 84.25 101.742C84.25 99.75 85.8906 98.1094 88 98.1094C89.9922 98.1094 91.6328 99.75 91.6328 101.742C91.6328 103.734 89.9922 105.375 88 105.375Z" fill="#D12E6A"/>
<path fill-rule="evenodd" clip-rule="evenodd" d="M64.2505 101.508C66.2426 101.508 68.0005 99.7499 68.0005 97.7577C68.0005 95.6483 66.2426 94.0077 64.2505 94.0077H60.5005V77.2499C60.5005 75.2577 58.7426 73.4999 56.7505 73.4999C54.6411 73.4999 53.0005 75.2577 53.0005 77.2499V94.0077H32.6098L45.0317 67.6405C45.9692 65.7655 45.1489 63.5389 43.2739 62.7186C41.3989 61.7811 39.1723 62.6014 38.352 64.4764L23.352 96.1171C22.7661 97.2889 22.8833 98.6952 23.4692 99.7499C24.1723 100.805 25.4614 101.508 26.7505 101.508H53.0005V111C53.0005 113.109 54.6411 114.75 56.7505 114.75C58.7426 114.75 60.5005 113.109 60.5005 111V101.508H64.2505ZM149.25 101.508C151.243 101.508 153 99.7499 153 97.7577C153 95.6483 151.243 94.0077 149.25 94.0077H145.5V77.2499C145.5 75.2577 143.743 73.4999 141.75 73.4999C139.641 73.4999 138 75.2577 138 77.2499V94.0077H117.61L130.032 67.6405C130.969 65.7655 130.149 63.5389 128.274 62.7186C126.399 61.7811 124.172 62.6014 123.352 64.4764L108.352 96.1171C107.766 97.2889 107.883 98.6952 108.469 99.7499C109.172 100.805 110.461 101.508 111.75 101.508H138V111C138 113.109 139.641 114.75 141.75 114.75C143.743 114.75 145.5 113.109 145.5 111V101.508H149.25Z" fill="black"/>
</svg>
